source/images/icons/icon-editorial/cone.svg

<?xml version="1.0" encoding="UTF-8"?>
<svg width="80px" height="80px" viewBox="0 0 80 80" version="1.1" xmlns="http://www.w3.org/2000/svg" xmlns:xlink="http://www.w3.org/1999/xlink">
    <!-- Generator: Sketch 55.2 (78181) - https://sketchapp.com -->
    <title>Illustrative Icons/Cone</title>
    <desc>Created with Sketch.</desc>
    <g id="Illustrative-Icons/Cone" stroke="none" stroke-width="1" fill="none" fill-rule="evenodd">
        <path d="M58.6666667,63.6666667 L30.3333333,63.6666667 C29.9564652,63.6874728 29.5906832,63.5352646 29.3398237,63.2532505 C29.0889642,62.9712364 28.9804185,62.5902093 29.045,62.2183334 L30.4433334,50.3333334 L50.2233334,50.3333334 L50.86,55.7483334 C50.9029547,56.3611368 51.2795238,56.9006296 51.8399376,57.1522435 C52.4003514,57.4038574 53.053741,57.3267943 53.540239,56.9517039 C54.0267371,56.5766135 54.2674599,55.9643151 54.1666667,55.3583334 L49.045,11.7816667 C48.6952575,9.06970577 46.400923,7.02990231 43.6666667,7 L37,7 C34.2657437,7.02990231 31.9714092,9.06970577 31.6216667,11.7816667 L25.735,61.8333334 C25.5603151,63.1501096 25.9676201,64.4776899 26.8507187,65.4699355 C27.7338172,66.462181 29.0051828,67.0207474 30.3333333,67 L58.6666667,67 C59.5871413,67 60.3333334,67.7461922 60.3333334,68.6666667 C60.3333334,69.5871413 59.5871413,70.3333334 58.6666667,70.3333334 L22,70.3333334 C21.0795254,70.3333334 20.3333333,69.5871413 20.3333333,68.6666667 C20.3333333,67.6483334 20.88,67 21.1666667,67 L23.6666667,67 C24.5871413,67 25.3333333,66.253808 25.3333333,65.3333334 C25.3333333,64.4128588 24.5871413,63.6666667 23.6666667,63.6666667 L21.1666667,63.6666667 C18.8683333,63.6666667 17,65.9100001 17,68.6666667 C17,71.4280905 19.2385763,73.6666667 22,73.6666667 L58.6666667,73.6666667 C61.4280905,73.6666667 63.6666667,71.4280905 63.6666667,68.6666667 C63.6666667,65.905243 61.4280905,63.6666667 58.6666667,63.6666667 Z M30.8333334,47 L32.01,37 L48.6533334,37 L49.8333334,47 L30.8333334,47 Z M48.2616667,33.6666667 L32.4033334,33.6666667 L33.58,23.6666667 L47.08,23.6666667 L48.2616667,33.6666667 Z M37,10.3333333 L43.6666667,10.3333333 C44.7028633,10.3785406 45.5657491,11.143387 45.735,12.1666667 L46.695,20.3333333 L33.9716667,20.3333333 L34.9316667,12.1666667 C35.1009176,11.143387 35.9638034,10.3785406 37,10.3333333 L37,10.3333333 Z M53.1933334,62.0733334 C54.113808,62.0733334 54.86,61.3271413 54.86,60.4066667 C54.86,59.4861921 54.113808,58.7400001 53.1933334,58.7400001 C52.2728588,58.7400001 51.5266667,59.4861921 51.5266667,60.4066667 C51.5266667,61.3271413 52.2728588,62.0733334 53.1933334,62.0733334 Z" id="Shape-color" fill="#ADB5BD"></path>
    </g>
</svg>

<svg width="80" height="80">
    <title>
        Illustrative Icons/Cone
    </title>
    <path d="M58.667 63.667H30.333a1.238 1.238 0 0 1-1.288-1.449l1.398-11.885h19.78l.637 5.415a1.667 1.667 0 1 0 3.307-.39l-5.122-43.576A5.483 5.483 0 0 0 43.667 7H37a5.483 5.483 0 0 0-5.378 4.782l-5.887 50.051A4.567 4.567 0 0 0 30.333 67h28.334a1.667 1.667 0 0 1 0 3.333H22c-.92 0-1.667-.746-1.667-1.666 0-1.019.547-1.667.834-1.667h2.5a1.667 1.667 0 1 0 0-3.333h-2.5c-2.299 0-4.167 2.243-4.167 5a5 5 0 0 0 5 5h36.667a5 5 0 1 0 0-10zM30.833 47l1.177-10h16.643l1.18 10h-19zm17.429-13.333H32.403l1.177-10h13.5l1.182 10zM37 10.333h6.667c1.036.046 1.899.81 2.068 1.834l.96 8.166H33.972l.96-8.166A2.193 2.193 0 0 1 37 10.333zm16.193 51.74a1.667 1.667 0 1 0 0-3.333 1.667 1.667 0 0 0 0 3.333z" fill="#ADB5BD" fill-rule="evenodd"/>
</svg>
